picto/disposal-of-syringes.svg

<svg class="color-immutable" width="24" height="24" viewBox="0 0 24 24" fill="none" xmlns="http://www.w3.org/2000/svg"><path d="M0 22.5V1.5C0 0.675 0.675 0 1.5 0H22.5C23.325 0 24 0.675 24 1.5V22.5C24 23.325 23.325 24 22.5 24H1.5C0.675 24 0 23.325 0 22.5Z" fill="#2D327D"/><path d="M8.09302 16.322L7.49302 17.361C7.41102 17.504 7.46002 17.688 7.60302 17.771L8.05802 18.034C8.20102 18.116 8.38502 18.067 8.46802 17.924L9.06802 16.885L8.09302 16.322Z" fill="white"/><path d="M17.055 4.175L15.106 3.04999C14.927 2.94699 14.697 3.00899 14.594 3.18699C14.491 3.36599 14.553 3.59599 14.731 3.69899L15.218 3.97999L14.843 4.62999L15.817 5.19199L16.192 4.54199L16.679 4.82299C16.858 4.92599 17.088 4.86399 17.191 4.68599C17.295 4.50899 17.233 4.278 17.055 4.175Z" fill="white"/><path d="M16.904 6.686L16.254 6.311L13.656 4.811L13.006 4.436C12.827 4.333 12.597 4.395 12.494 4.573C12.391 4.752 12.453 4.982 12.631 5.085L13.281 5.46L7.80603 14.943C7.72303 15.086 7.77303 15.27 7.91603 15.353L9.99403 16.553C10.137 16.636 10.321 16.586 10.404 16.443L11.379 14.754L10.405 14.192C10.226 14.089 10.165 13.858 10.268 13.68C10.371 13.501 10.602 13.44 10.78 13.543L11.754 14.105L12.879 12.156L11.905 11.594C11.726 11.491 11.665 11.26 11.768 11.082C11.871 10.903 12.102 10.842 12.28 10.945L13.254 11.507L14.379 9.558L13.405 8.996C13.226 8.893 13.165 8.662 13.268 8.484C13.371 8.305 13.602 8.244 13.78 8.347L14.754 8.909L15.879 6.96L16.529 7.335C16.708 7.438 16.938 7.376 17.041 7.198C17.144 7.02 17.083 6.789 16.904 6.686Z" fill="white"/><path d="M7.35732 18.4957L6.00732 20.8339L6.20217 20.9464L7.55217 18.6082L7.35732 18.4957Z" fill="white"/></svg>

<svg class="color-immutable" width="24" height="24" viewBox="0 0 24 24" fill="none" xmlns="http://www.w3.org/2000/svg"><g clip-path="url(#a)"><path d="M0 22.5v-21C0 .675.675 0 1.5 0h21c.825 0 1.5.675 1.5 1.5v21c0 .825-.675 1.5-1.5 1.5h-21C.675 24 0 23.325 0 22.5Z" fill="#2D327D"/><path d="m8.093 16.322-.6 1.039a.302.302 0 0 0 .11.41l.455.263a.302.302 0 0 0 .41-.11l.6-1.039-.975-.563ZM17.055 4.175 15.106 3.05a.376.376 0 0 0-.512.137.376.376 0 0 0 .137.512l.487.281-.375.65.974.562.375-.65.487.281a.374.374 0 0 0 .376-.648ZM16.904 6.686l-.65-.375-2.598-1.5-.65-.375a.376.376 0 0 0-.512.137.376.376 0 0 0 .137.512l.65.375-5.475 9.483a.3.3 0 0 0 .11.41l2.078 1.2a.3.3 0 0 0 .41-.11l.975-1.689-.974-.562a.376.376 0 0 1 .375-.649l.974.562 1.125-1.949-.974-.562a.376.376 0 0 1 .375-.649l.974.562 1.125-1.949-.974-.562a.376.376 0 0 1 .375-.649l.974.562 1.125-1.949.65.375a.376.376 0 0 0 .375-.649ZM7.357 18.496l-1.35 2.338.195.112 1.35-2.338-.195-.112Z" fill="#fff"/></g><defs><clipPath id="a"><path fill="#fff" d="M0 0h24v24H0z"/></clipPath></defs></svg>
